!!!!SEGMENT:pl-sa--575-a-ix-55--012_anonim-dumka.krn
!!!id: 18xx:626
!!!COM: Anonim
!!!OTL: Dumka
!!!PDT:
!!!SMS-siglum: PL-SA
!!!SMS-shelfmark: 575/A IX 55
!!!SMS-variant:
!!!SMS-altvar:
!!!NIFC-rismID: 1001109852
**kern
*part1
*staff1
*I"Piano
*clefG2
*k[b-]
*M2/4
!LO:TX:a:t=P:w źródle caudy nut na środku:problem
!LO:TX:a:Bi:t=Dumka:rj
4a\
=1
8.dd\L
16ee\Jk
8ff\L
8dd\J
=2
!LO:TX:a:t=P:W źródle przednutka wygląda jak nuta:problem
(>4qqa/
8.aa\L)
16ff\K
8ee\
8dd\J
=3
8ff\L
8ee\
8aa\
8cc#X\J
=4
(4qqcc#X/
4dd\)
4a\
=5
16dd\LL
(>16cc#X\
16dd\
16ee\JJ)
16ff\LL
16ee\
16ff\
16gg\JJ
=6
(>16aa\LL
16aa\
16bb-\)
16aa\JJ
16gg\LL
16ff\
16ee\
16dd\JJ
=7
16cc#X\LL
(>16ee\
16gg\)
16bb-\JJ
16aa\LL
16gg#X\
16aa\
16dd#X\JJ
=8
(>4qqcc#X/
4dd\)
4r
=9||
4ff\
8aa\L
8ff\J
=10
4.ccc\
8aa\
=11
8gg\L
8gg\
8ccc\
8bb-\J
=12
4qqa/
8.aa\L
16gg\K
8ff\
8ee\J
=13
16dd\LL
(>16cc#X\
16dd\
16ee\JJ)
(>16ff\LL
16ee\
16ff\)
16gg\JJ
=14
(>16aa\LL
16aa\
16bb-\)
16aa\JJ
16gg\LL
16ff\
16ee\
16dd\JJ
=15
(>16cc#X\LL
16ee\
16gg\)
16bb-\JJ
16aa\LL
16gg#X\
16aa\
(>16cc#\JJ
=16
4cc#X\
4dd\)
==
*-
!!title: @{OTL};
!!!RDF**kern: > = above
!!!RDF**kern: < = below
!!!ENC: Marta Chmielewska
!!!END: 2020-06-20
!!!EED: Wojciech Jakubiak-Danek
!!!EST: 2020-12-10
!!!URL-scan: http://bc.bdsandomierz.pl/dlibra/publication/1381/edition/1349/content
!!!ONB-nifc: Str. 6, pięciolinie 3-4 (druga Dumka). Uwaga: tylko partia prawej ręki
